X: 1
T: The Haymakers
M: 6/8
L: 1/8
K: G
D|:G2B A2c|B2G AFD|G2B A2c|[1BdB G2D:|[2BdB G2d|
|:B2d g2d|ege dBG|B2d g2d|ege d3:|
|:c2e dBG|AGA B2G|c2e dBG|AGA G3:|
